src/assets/icons/cc-hi.svg

<svg fill="none" height="53" viewBox="0 0 53 53" width="53" xmlns="http://www.w3.org/2000/svg"><path d="m2.86774.676758c-1.35932 0-2.4715 1.112172-2.4715 2.471502v46.95854c0 1.3594 1.11218 2.4715 2.4715 2.4715h46.95856c1.3593 0 2.4715-1.1121 2.4715-2.4715v-46.95854c0-1.35933-1.1122-2.471502-2.4715-2.471502zm28.42226 12.357542c7.501 0 13.5933 6.0922 13.5933 13.5932 0 7.5011-6.0923 13.5933-13.5933 13.5933h-6.1787-5.5609c-6.4753 0-11.73965-5.2643-11.73965-11.7396 0-6.4754 5.26435-11.7397 11.73965-11.7397.7538 0 1.482.0741 2.1988.21 2.4591-2.4221 5.8212-3.9172 9.5408-3.9172zm0 2.4715c-2.5456 0-4.979.8659-6.9438 2.4353.8032.4078 1.555.9023 2.247 1.4336 1.3841-.9144 3.0039-1.3974 4.6968-1.3974 4.77 0 8.6503 3.8802 8.6503 8.6502s-3.8803 8.6503-8.6503 8.6503c-3.8432 0-6.4989-2.9038-9.3164-5.9808-.7167-.7909-1.4334-1.5708-2.1625-2.3122-.482-.482-1.2752-.482-1.7571 0-.482.4819-.482 1.2751 0 1.757.7167.7044 1.4102 1.4691 2.1022 2.2229l1.2961 1.4096c1.5447 1.6435 3.1769 3.1866 5.1047 4.1875 1.3964.7291 2.9536 1.1875 4.733 1.1875 6.1294 0 11.1218-4.9924 11.1218-11.1218 0-6.1293-4.9924-11.1217-11.1218-11.1217zm-11.7396 3.7072c-5.116 0-9.2681 4.1522-9.2681 9.2682s4.1521 9.2681 9.2681 9.2681c1.1616 0 2.2994-.2098 3.3621-.6299-.7909-.6179-1.5218-1.2853-2.1891-1.9526-.3831.0741-.7776.111-1.173.111-3.7443 0-6.7966-3.0523-6.7966-6.7966 0-3.7444 3.0523-6.7967 6.7966-6.7967 2.8175 0 5.1906 2.4827 7.2914 4.6824.3831.3954.7398.7808 1.0982 1.1392.4819.4819 1.2751.4819 1.7571 0 .4819-.482.4819-1.2752 0-1.7571-.346-.346-.706-.7154-1.0644-1.0861-.9886-1.0504-2.0878-2.1883-3.3235-3.1521-.5685-.4573-1.1628-.8632-1.8054-1.2092-1.1986-.6673-2.5076-1.0886-3.9534-1.0886z" fill="#000"/></svg>

<svg width="53" height="53" viewBox="0 0 53 53" fill="none" xmlns="http://www.w3.org/2000/svg">
<path d="M2.86774 0.676758C1.50842 0.676758 0.39624 1.78893 0.39624 3.14826V50.1068C0.39624 51.4662 1.50842 52.5783 2.86774 52.5783H49.8263C51.1856 52.5783 52.2978 51.4662 52.2978 50.1068V3.14826C52.2978 1.78893 51.1856 0.676758 49.8263 0.676758H2.86774ZM31.29 13.0343C38.791 13.0343 44.8833 19.1265 44.8833 26.6275C44.8833 34.1286 38.791 40.2208 31.29 40.2208H25.1113H19.5504C13.0751 40.2208 7.81075 34.9565 7.81075 28.4812C7.81075 22.0058 13.0751 16.7415 19.5504 16.7415C20.3042 16.7415 21.0324 16.8156 21.7492 16.9515C24.2083 14.5294 27.5704 13.0343 31.29 13.0343ZM31.29 15.5058C28.7444 15.5058 26.311 16.3717 24.3462 17.9411C25.1494 18.3489 25.9012 18.8434 26.5932 19.3747C27.9773 18.4603 29.5971 17.9773 31.29 17.9773C36.06 17.9773 39.9403 21.8575 39.9403 26.6275C39.9403 31.3975 36.06 35.2778 31.29 35.2778C27.4468 35.2778 24.7911 32.374 21.9736 29.297C21.2569 28.5061 20.5402 27.7262 19.8111 26.9848C19.3291 26.5028 18.5359 26.5028 18.054 26.9848C17.572 27.4667 17.572 28.2599 18.054 28.7418C18.7707 29.4462 19.4642 30.2109 20.1562 30.9647L21.4523 32.3743C22.997 34.0178 24.6292 35.5609 26.557 36.5618C27.9534 37.2909 29.5106 37.7493 31.29 37.7493C37.4194 37.7493 42.4118 32.7569 42.4118 26.6275C42.4118 20.4982 37.4194 15.5058 31.29 15.5058ZM19.5504 19.213C14.4344 19.213 10.2823 23.3652 10.2823 28.4812C10.2823 33.5972 14.4344 37.7493 19.5504 37.7493C20.712 37.7493 21.8498 37.5395 22.9125 37.1194C22.1216 36.5015 21.3907 35.8341 20.7234 35.1668C20.3403 35.2409 19.9458 35.2778 19.5504 35.2778C15.8061 35.2778 12.7538 32.2255 12.7538 28.4812C12.7538 24.7368 15.8061 21.6845 19.5504 21.6845C22.3679 21.6845 24.741 24.1672 26.8418 26.3669C27.2249 26.7623 27.5816 27.1477 27.94 27.5061C28.4219 27.988 29.2151 27.988 29.6971 27.5061C30.179 27.0241 30.179 26.2309 29.6971 25.749C29.3511 25.403 28.9911 25.0336 28.6327 24.6629C27.6441 23.6125 26.5449 22.4746 25.3092 21.5108C24.7407 21.0535 24.1464 20.6476 23.5038 20.3016C22.3052 19.6343 20.9962 19.213 19.5504 19.213Z" fill="black"/>
</svg>
